X:1
T:Title
%%score 1 2 3
L:1/8
M:3/2
K:C
V:1 treble nm="Part_1"
V:2 treble-8 nm="Part_2"
V:3 treble-8 nm="Part_3"
V:1
 A8 G4 | c3 B A2 A2 G2 F2 | A4 z4 A4 | D8 F4 | E4 G6 F2 | E4 D6 C2 | C8 E4 | D4 G6 E2 | %8
 G4 F2 E4 D2 | D3 F E2 D2 C2 B,C | D12 | D4 A4 G4 | F4 F4 z4 | E4 F4 G4 | F4 E4 z2 D2 | D4 z4 F4 | %16
 F2 E2 C2 D3 C B,2 | D12 | D8 A2 B2 | c8 c2 B2 | G8 ^G4 | A2 B2 c4 d4- | d4 c4 c2 B2 | G8 A2 B2 | %24
 c4 B6 A2 | A8 G4 | A4 A4 z4 | A4 D4 E2 F2 | G8 F4 | E2 D4 D2 C2 B,2 | D12 | A8 A4 | A4 c6 B2 | %33
 G4 z4 G4 | A6 B2 ^c4 | d8 c4 | c4 z4 z4 | G6 A2 B4 | c4 B6 A2 | A4 G6 F2 | A12 | D4 A4 G4 | %42
 F4 E4 G4 | G4 A6 G2 | G8 z4 | c8 B4 | A4 G6 F2 | A4 A4 z4 | A4 D4 E2 F2 | G6 F2 E4 | C4 E6 D2 | %51
 D4 ^C6 B,2 | D12 | F8 E4 | F4 G6 F2 | E4 z4 G4 | G4 A8 | D4 D8 | C4 z4 F4 | G4 F4 E4 | %60
 D4 F4 F2 E2 | C2 D4 D2 C2 B,2 | D12 | D4 F4 E4 | G4 A4 F4 | F4 D6 C2 | E4 E4 z4 | C4 F4 E4 | %68
 G4 A4 F4 | D4 E4 C4 | E2 F2 G6 E2 | F4 E6 D2 | D4 ^C6 B,2 | D12 | A6 B2 c4 | c2 B2 G4 A4 | %76
 _B4 G4 F4 | G4 A2 G4 F2 | A8 z4 | D4 E4 D4 | G4 G4 A4 | D4 E8 | D8 G4 | A4 G4 F4 | %84
 F2 D2 C2 D4 C2 | D12 |] %86
V:2
 A8 B4 | A4 c4 B4 | A12 | d12 | c8 B4 | G2 A2 B6 A2 | c12 | G8 C4 | E4 G8 | F4 G2 D2 E4 | D12 | %11
 D8 E4 | F8 G4 | A8 G4 | D4 A2 c4 B2 | d8 A4 | A2 G2 A2 GF E4 | D12 | D8 F2 G2 | A8 B4 | c8 B4 | %21
 A8 B4- | B4 c4 A4 | c4 e4 d4 | c2 A2 G6 F2 | A4 c4 B4 | A8 D4 | A4 B4 A4 | G8 D4 | G4 F2 D2 E4 | %30
 D12 | A8 F4- | F4 A8 | c8 B4 | A12 | B8 c2 A2 | F4 D2 F4 E2 | G8 G4 | A4 G4 d4 | c4 _B8 | A12 | %41
 D8 E4 | F4 A4 G4 | E4 ^F8 | G4 E2 G4 F2 | A8 G4 | c4 B8 | A8 B2 c2 | d2 c2 B4 A4 | G4 B4 c4 | %50
 A8 G4 | F4 E8 | D12 | F8 G4 | F4 E6 D2 | A8 G4- | G4 D8 | G4 B8 | c8 A4 | G4 d4 c4 | %60
 B4 A2 F2 D2 E2 | F6 D2 E4 | D12 | D4 A4 G4 | B4 A8 | A4 F8 | E8 C4 | E4 A4 G4 | B4 A8 | F8 E4 | %70
 G2 A2 G4 G4 | A4 G8 | F4 E8 | D12 | A8 A4 | F4 E4 F4 | G4 c4 d4 | c4 B8 | A4 d2 c4 B2 | %79
 d2 f2 e2 c2 d4 | G4 B4 A4 | B4 ^c8 | d8 B4 | A4 E4 D4 | F4 E2 F2 G2 E2 | D12 |] %86
V:3
 D8 G4 | F8 G4 | D12- | D8 D4 | A4 E4 D4 | E2 F2 G4 F4 | C12 | B8 c4 | B8 G2 B2 | A3 c B2 A2 G4 | %10
 A12 | A4 d4 c2 B2 | A8 B4 | c4 F4 E4 | A6 F2 G4 | D8 D4 | c2 B2 A4 G4 | A12 | A8 A2 G2 | %19
 F4 C2 F4 G2 | C8 E4 | F8 D4 | G4 C4 F4 | E4 C4 F2 G2 | A2 Bc d8 | c4 A2 F2 G4 | D8 d4 | %27
 D4 G4 z2 c2 | d4 B4 A2 d2- | d2 B2 A4 G4 | A12 | D8 D4 | A4 F8 | C8 G4 | D8 ^c2 A2 | G8 C4 | %36
 c4 d4 c4 | e6 d2 B4 | c4 d4 D4 | e4 d6 c2 | e12 | A4 d4 c2 B2 | A4 c4 B4 | G4 A8 | E8 B2 cd | %45
 c4 A2 F2 G2 E2 | F4 G8 | D4 F4 E4 | D2 EF G2 AB c2 dc | d2 B2 G4 C4 | c8 B4 | A4 G6 F2 | A12 | %53
 c6 A2 B4 | A4 B8 | c8 d4 | e4 d8 | B4 G8 | C8 c4 | e4 D4 E2 F2 | G4 c4 d2 cB | A8 G4 | A12 | %63
 A4 c4 B4 | d4 e4 c4 | c4 A6 G2 | B4 B4 z4 | G4 c4 B4 | d4 e4 c4 | A4 B4 G4 | B2 c2 d6 B2 | %71
 c4 B6 A2 | A4 ^G6 F2 | A12 | D8 c4- | c2 d2 e4 c4 | _B3 G E4 D4 | E4 D2 G6 | D4 F4 A2 G2 | %79
 D4 A4 D4 | d8 e2 c2- | cdcB A8 | D8 E4 | F4 G4 A4 | D4 G2 A2 G4 | A12 |] %86

